lib/functional/weather&nature/rainbow-cloud.svg

<svg xmlns="http://www.w3.org/2000/svg" fill="none" stroke="currentColor" aria-hidden="true" viewBox="0 0 32 32"><g id="Icon-RainbowCloud"><g clip-path="url(#clip0_13_393)"><g id="size=md (32px)"><g id="RainbowCloud"><path id="Vector" stroke-linecap="round" stroke-linejoin="round" stroke-width="2" d="M19 25C17.3375 25 16 23.6125 16 21.8875C16 20.1625 17.3375 18.775 19 18.775C19.3784 18.7721 19.7532 18.8487 20.1 19C20.2892 18.0731 20.7375 17.2189 21.3928 16.5366C22.0481 15.8542 22.8835 15.3718 23.8021 15.1454C24.7206 14.9189 25.6845 14.9577 26.5819 15.2572C27.4793 15.5567 28.2732 16.1046 28.8716 16.8373C29.47 17.5701 29.8483 18.4575 29.9624 19.3966C30.0766 20.3358 29.922 21.288 29.5166 22.1427C29.1112 22.9975 28.4716 23.7197 27.6721 24.2255C26.8726 24.7312 25.946 24.9998 25 25H19Z"/><path id="Vector_2" stroke-linecap="round" stroke-linejoin="round" stroke-width="2" d="M2 22V20C2.00124 17.6419 2.69725 15.3364 4.0011 13.3714C5.30494 11.4065 7.15883 9.86933 9.33118 8.95185C11.5035 8.03436 13.8981 7.77727 16.2157 8.21268C18.5333 8.64809 20.6712 9.7567 22.3625 11.4"/><path id="Vector_3" stroke-linecap="round" stroke-linejoin="round" stroke-width="2" d="M6 21.9999V19.9999C5.99934 18.5206 6.4089 17.07 7.18317 15.8094C7.95744 14.5488 9.0661 13.5276 10.3859 12.8592C11.7057 12.1909 13.185 11.9016 14.6594 12.0236C16.1337 12.1455 17.5454 12.6739 18.7375 13.5499"/><path id="Vector_4" stroke-linecap="round" stroke-linejoin="round" stroke-width="2" d="M10 22V20C10 18.9392 10.4214 17.9217 11.1716 17.1716C11.9217 16.4215 12.9391 16 14 16C14.3118 15.9989 14.6225 16.0367 14.925 16.1125"/></g></g></g></g><defs><clipPath id="clip0_13_393"><rect width="32" height="32" fill="white" rx="5"/></clipPath></defs></svg>

<svg xmlns="http://www.w3.org/2000/svg" fill="none" stroke="currentColor" aria-hidden="true" viewBox="0 0 32 32"><g stroke="#101828" stroke-linecap="round" stroke-linejoin="round" stroke-width="2" clip-path="url(#a)"><path d="M19 25c-1.663 0-3-1.387-3-3.113 0-1.724 1.337-3.112 3-3.112a2.7 2.7 0 0 1 1.1.225 5 5 0 1 1 4.9 6h-6ZM2 22v-2a12 12 0 0 1 20.363-8.6"/><path d="M6 22v-2a8 8 0 0 1 12.738-6.45"/><path d="M10 22v-2a4 4 0 0 1 4-4c.312-.001.623.037.925.113"/></g><defs><clipPath id="a"><rect width="32" height="32" fill="#fff" rx="5"/></clipPath></defs></svg>
